X:487
T: Es zog ein Matrose (5-83), S. 132f
N: P0756
O: Lothringen
S: MERKELBACH-PINCK, Angelika: Verklingende Weisen, Bd 5, Kassel 1962]
R: Liebe, Abschied]
M: 3/4
L: 1/8
K: C
G2 | GEA3G | GEA2G2 | F2D2G2 | E4
GG | c2B2AA | A2G2
c2 | d2A2B2 | c4
GG | G2E2GG | e2d2
cc | c2B2AA | A2G2
c2 | d2A2B2 | c4

@@@ Tune index: 8037
